X:2
T:O'ver the Hills & far away
M:C
L:1/8
B:Bremner, Instructions for the guitar…, Edinburgh, [1758], p. 15
Z:François-Emmanuel de Wasseige
K:C
GA|c3d cded|c2A2 A2GA|c3d cdec|e2d2 [d2G2]GA|
c3d cded|c2A2 A2c2|G3A GAcd|e2 [d2G2] [d2G2]:|
|:ef|g3a gede|c2A2 A2ef|g3a gedc|e2 [d2G2] [d2G2] ef|
[g3e3][af] gede|c2A2 A2c2|G3A GAcd|[e2c2] [d2G2] [d2G2]:|]

